X:21183 
T:SPATTER THE DEW 
B:DMI.0446
Z:Nordberg/Black
R:slip jig
%Q:1/4=150
M:9/8
L:1/8
K:Em
EFE E2F G2F|EFE E2B AFD|EFE E2F G2B|AFA dAG FED:|
E2B B2F G2F|E2B B2G AFD|E2B B2F G2B|AFA dAG FED|
E2B B2F G2F|E2B B2G AFD|E2B AB^c dcB|AFA dAG FED||
B2e efd e2d|B2e e2a fdB|A2d d2^c d2B|A2e d2B AFD|
B2e efd e2d|B2e e2a fdB|fga efg d2A|B2^c A2G FED||
BdB ABA G2F|EFE E2B AFD|BdB ABA G2B|AFA dAG FED|
BdB ABA G2F|EFE G2F AFD|B^cd ABc dcB|AFA dAG FED|]

%%%

